Papirus-Dark/16x16/actions/mail-encrypted-full.svg

<?xml version="1.0" encoding="UTF-8" standalone="no"?>
<svg xmlns="http://www.w3.org/2000/svg" width="16" height="16" viewBox="0 0 16 16">
 <defs>
  <style type="text/css" id="current-color-scheme">
   .ColorScheme-Text { color:#d3dae3; }
  </style>
 </defs>
 <path style="fill:currentColor;opacity:1" class="ColorScheme-Text" d="M 2.0058594 2.0039062 C 0.89785937 2.0039062 0.005859375 2.8959063 0.005859375 4.0039062 L 0.005859375 12.003906 C 0.005859375 13.111906 0.89785937 14.003906 2.0058594 14.003906 L 9.9375 14.003906 C 9.9362 13.983096 9.9355469 13.962256 9.9355469 13.941406 L 9.9355469 10.941406 C 9.9356022 10.389146 10.383287 9.9414662 10.935547 9.9414062 L 10.935547 9.4414062 C 10.935547 8.0725062 12.066647 6.9414062 13.435547 6.9414062 C 14.804447 6.9414062 15.935547 8.0725062 15.935547 9.4414062 L 15.935547 9.9414062 C 15.958997 9.9412326 15.982449 9.9418905 16.005859 9.9433594 L 16.005859 4.0039062 C 16.005859 2.8959062 15.113859 2.0039063 14.005859 2.0039062 L 2.0058594 2.0039062 z M 2.0058594 4.0039062 L 8.0058594 7.0039062 L 14.005859 4.0039062 L 14.005859 6.0039062 L 8.0058594 9.0039062 L 2.0058594 6.0039062 L 2.0058594 4.0039062 z M 13.435547 7.9414062 A 1.5 1.5 0 0 0 11.935547 9.4414062 L 11.935547 10.941406 L 10.935547 10.941406 L 10.935547 13.941406 L 15.935547 13.941406 L 15.935547 10.941406 L 14.935547 10.941406 L 14.935547 9.4414062 A 1.5 1.5 0 0 0 13.435547 7.9414062 z M 13.435547 8.9414062 A 0.5 0.5 0 0 1 13.935547 9.4414062 L 13.935547 10.941406 L 12.935547 10.941406 L 12.935547 9.4414062 A 0.5 0.5 0 0 1 13.435547 8.9414062 z"/>
</svg>

<?xml version="1.0" encoding="UTF-8" standalone="no"?>
<!--Created with Inkscape (http://www.inkscape.org/)-->
<svg id="svg7384" xmlns:rdf="http://www.w3.org/1999/02/22-rdf-syntax-ns#" style="enable-background:new" xmlns="http://www.w3.org/2000/svg" height="16" width="16" version="1.1" xmlns:cc="http://creativecommons.org/ns#" xmlns:dc="http://purl.org/dc/elements/1.1/">
 <metadata id="metadata90">
  <rdf:RDF>
   <cc:Work rdf:about="">
    <dc:format>image/svg+xml</dc:format>
    <dc:type rdf:resource="http://purl.org/dc/dcmitype/StillImage"/>
   </cc:Work>
  </rdf:RDF>
 </metadata>
 <defs id="defs7386">
 </defs>
 <g id="layer12" transform="translate(-467 -141)">
  <g id="layer1" opacity="1" fill="#d3dae3" transform="translate(46.215 -390.85)">
   <path id="rect4172" style="fill:#d3dae3" fill-rule="evenodd" transform="translate(420.79 531.85)" d="m2 2.0039c-1.108 0-2 0.892-2 2v8c0 1.108 0.892 2 2 2h7.9316c-0.0013-0.02081-0.00195-0.04165-0.00195-0.0625v-3c0.0000553-0.55226 0.44774-0.99994 1-1v-0.5c0-1.3689 1.1311-2.5 2.5-2.5s2.5 1.1311 2.5 2.5v0.5c0.02345-0.0001736 0.0469 0.0004811 0.07031 0.00195v-5.9395c0-1.108-0.892-2-2-2h-12zm0 2 6 3 6-3v2l-6 3-6-3v-2zm11.43 3.9375a1.5 1.5 0 0 0 -1.5 1.5v1.5h-1v3h5v-3h-1v-1.5a1.5 1.5 0 0 0 -1.5 -1.5zm0 1a0.5 0.5 0 0 1 0.5 0.5v1.5h-1v-1.5a0.5 0.5 0 0 1 0.5 -0.5z"/>
  </g>
 </g>
</svg>
